src/icons/code-climate.svg

<svg
  class="main_logo__svg"
  xmlns="http://www.w3.org/2000/svg"
  viewBox="0 0 300 300"
>
  <path
    class="symbol"
    d="m196.19 75.562-51.846 51.561 30.766 30.766 21.08-21.08 59.252 59.537 30.481-30.766zm-61.246 60.961-30.481-30.481-78.053 78.053-11.964 11.964 30.766 30.766 11.964-12.249 39.596-39.312 7.691-7.691 30.481 30.48 28.772 28.773 30.766-30.766-28.772-28.772z"
    fill="#eee"
  />
</svg>

<svg viewBox="0 0 300 300" xmlns="http://www.w3.org/2000/svg">
  <path
    d="M196.19 75.562L144.344 127.123L175.11 157.889L196.19 136.809L255.442 196.346L285.923 165.58L196.19 75.562ZM134.944 136.523L104.463 106.042L26.41 184.095L14.446 196.059L45.212 226.825L57.176 214.576L96.772 175.264L104.463 167.573L134.944 198.053L163.716 226.826L194.482 196.06L165.71 167.288L134.944 136.523Z"
    fill="#EEEEEE"
  />
</svg>
